X: 3206
Q: "Highland Schottische."
M: C
L: 1/8
K: G
[|\
vG>vA (B<d) (e<g) (e<g) | d<B B>e d<B B>A |\
e>fg>a b>ag>e | d<B B>G A2- Ad |]
[|\
g>ab>a (g<e) (e<g) | d<B B>e d<B B<d |\
g>a b>a (g<e) (e<g) | d<B B>G A2- Ad |\
g>ab>a g<e (e<g) | d<B B>e d<B B>d |\
e>fg>a b>ag>e | d<B A>B G2- Gz |]


